source/img/icons/icon-in.svg

<svg width="30" height="30" viewBox="0 0 30 30" fill="none" xmlns="http://www.w3.org/2000/svg">
<circle cx="15" cy="15" r="15" fill="white"/>
<path d="M8.22178 22.0586H11.3059V12.0742H8.22178V22.0586Z" fill="black"/>
<path d="M7.94141 8.88672C7.94141 9.87109 8.7358 10.668 9.76384 10.668C10.7451 10.668 11.5395 9.87109 11.5395 8.88672C11.5395 7.90234 10.7451 7.05859 9.76384 7.05859C8.7358 7.05859 7.94141 7.90234 7.94141 8.88672Z" fill="black"/>
<path d="M19.8106 22.0586H22.9414V16.5742C22.9414 13.9023 22.3339 11.793 19.2031 11.793C17.7078 11.793 16.6797 12.6367 16.2592 13.4336H16.2124V12.0742H13.2685V22.0586H16.3526V17.1367C16.3526 15.8242 16.5863 14.5586 18.2218 14.5586C19.8106 14.5586 19.8106 16.0586 19.8106 17.1836V22.0586Z" fill="black"/>
</svg>

<svg width="30" height="30" fill="none" xmlns="http://www.w3.org/2000/svg"><circle cx="15" cy="15" r="15" fill="#fff"/><path d="M8.222 22.059h3.084v-9.985H8.222v9.985ZM7.941 8.887c0 .984.795 1.781 1.823 1.781.981 0 1.776-.797 1.776-1.781 0-.985-.795-1.828-1.776-1.828A1.828 1.828 0 0 0 7.94 8.887ZM19.81 22.059h3.131v-5.485c0-2.672-.607-4.781-3.738-4.781-1.495 0-2.523.844-2.944 1.64h-.047v-1.359h-2.944v9.985h3.085v-4.922c0-1.313.233-2.578 1.869-2.578 1.589 0 1.589 1.5 1.589 2.625v4.875Z" fill="#000"/></svg>
